X: 26160
T: McIntyre's Fancy
R: jig
M: 6/8
K: Adorian
|:cde AGE|GAB ABA|eag edc|~e3 AGE|
c2 e dcA|~G3 Gcd|gea ged|cAG ~A3:|
|:~a3 ged|edg edc|A3 GAc|~d3 deg|
aeg dec|~A3 GEG|cde ged|cAG A3:|

